Sources/FrostedUI/Resources/Icons.xcassets/bank16.imageset/bank-16.svg

<svg width="16" height="16" viewBox="0 0 16 16" fill="none" xmlns="http://www.w3.org/2000/svg" data-fui-icon="true">
  <path
    d="M7.13184 0.63269C7.66982 0.325293 8.33018 0.325292 8.86816 0.63269L14.8682 4.06042C15.4133 4.37194 15.7499 4.95209 15.75 5.57996V6.33289C15.75 6.93109 15.2652 7.41669 14.667 7.41687H14.25V12.0653C15.1123 12.2875 15.75 13.0682 15.75 13.9999C15.75 15.1044 14.8546 15.9999 13.75 15.9999H2.25C1.14543 15.9999 0.25 15.1044 0.25 13.9999C0.250048 13.0682 0.887703 12.2875 1.75 12.0653V7.41687H1.33301C0.73485 7.41669 0.25 6.93109 0.25 6.33289V5.57996C0.250125 4.95209 0.58668 4.37194 1.13184 4.06042L7.13184 0.63269ZM2.25 13.4999C1.97389 13.4999 1.75006 13.7238 1.75 13.9999C1.75 14.276 1.97386 14.4999 2.25 14.4999H13.75C14.0261 14.4999 14.25 14.276 14.25 13.9999C14.2499 13.7238 14.0261 13.4999 13.75 13.4999H2.25ZM3.25 7.41687V11.9999H4.5V7.41687H3.25ZM6 7.41687V11.9999H10V7.41687H6ZM11.5 7.41687V11.9999H12.75V7.41687H11.5ZM8.12402 1.93445C8.04722 1.89061 7.95278 1.89061 7.87598 1.93445L1.87598 5.36316C1.79818 5.40761 1.75012 5.49038 1.75 5.57996V5.91687H14.25V5.57996C14.2499 5.49038 14.2018 5.40761 14.124 5.36316L8.12402 1.93445Z"
    fill="currentColor"
  />
</svg>

<svg xmlns="http://www.w3.org/2000/svg" width="16" height="16" fill="none" data-fui-icon="true" viewBox="0 0 16 16"><path fill="currentColor" d="M7.132.633a1.75 1.75 0 0 1 1.736 0l6 3.427c.545.312.882.892.882 1.52v.753c0 .598-.485 1.084-1.083 1.084h-.417v4.648a1.999 1.999 0 0 1-.5 3.935H2.25a2 2 0 0 1-.5-3.935V7.417h-.417A1.084 1.084 0 0 1 .25 6.333V5.58c0-.628.337-1.208.882-1.52zM2.25 13.5a.5.5 0 0 0 0 1h11.5a.5.5 0 0 0 0-1zm1-6.083V12H4.5V7.417zm2.75 0V12h4V7.417zm5.5 0V12h1.25V7.417zM8.124 1.934a.25.25 0 0 0-.248 0l-6 3.43a.25.25 0 0 0-.126.216v.337h12.5V5.58a.25.25 0 0 0-.126-.217z"/></svg>
